X: 941
T: Gülzâr Sazsemâîsi
C: İsmet Burkay
O: Turkey
F: http://compmusic.upf.edu/node/140
N: gulzar--sazsemaisi--aksaksemai----ismet_burkay
N: makam= gulzar
N: form= sazsemaisi
N: usul= aksaksemai = 10/8
M: 10/8
L: 1/16
K: C _1/4B   
Q: 1/4=120
%%MIDI tuningsystem comma53
G2^F2 EDEF GAB2 (3AGFG6  | c2B2 AGB2 c2d2 c2f3/2e/ d4  | 
w:  1. HANE  |   | 
(3de^fg2 =fed2 dc(3^fed cBA6  | e2d2 cBdc BAB2 (3AG^FG6  | 
w:   |   | 
d4 (3edc(3cBA (3AG^FF2 FED6  | c2d2 B2g2 f2e2 f3/2e/d^c d4  | 
w:  MÜLÂZİME  |   | 
G2d2 edc2 B2cB BAA6  | A2c2 dcB2 A2B3/2A/ G^FG6  | 
w:   |   | 
c2B2 BAA2 ^F2G2 A2GF E4  | D^CD2 E2^F2 FEF3/2E/ DCD6  | 
w:   |   | 
d4 (3edc(3cBA (3AG^FF2 FED6  | c2d2 B2g2 f2e2 f3/2e/d^c d4  | 
w:  MÜLÂZİME  |   | 
G2d2 edc2 B2cB BAA6  | A2c2 dcB2 A2B3/2A/ G^FG6  | 
w:   |   | 
c2B2 BAA2 ^F2G2 A2GF E4  | D^CD2 E2^F2 FEF3/2E/ DCD6  | 
w:   |   | 
d2=B2 ^cdc2 d2e2 d2f3/2e/ d4  | e2ed cdc2 B2dc BAA6  | 
w:  2. HANE  |   | 
A2=B2 ^cde2 ^f2g2 =fed2 c2B2  | g2gf e2d2 ^c2f3/2e/ dcd6  | 
w:   |   | 
d2=B2 ^cdc2 d2e2 d2f3/2e/ d4  | e2ed cdc2 B2dc BAA6  | 
w:  2. HANE  |   | 
A2=B2 ^cde2 ^f2g2 =fed2 c2B2  | g2gf e2d2 ^c2f3/2e/ dcd6  | 
w:   |   | 
d4 (3edc(3cBA (3AG^FF2 FED6  | c2d2 B2g2 f2e2 f3/2e/d^c d4  | 
w:  MÜLÂZİME  |   | 
G2d2 edc2 B2cB BAA6  | A2c2 dcB2 A2B3/2A/ G^FG6  | 
w:   |   | 
c2B2 BAA2 ^F2G2 A2GF E4  | D^CD2 E2^F2 FEF3/2E/ DCD6  | 
w:   |   | 
d4 (3edc(3cBA (3AG^FF2 FED6  | c2d2 B2g2 f2e2 f3/2e/d^c d4  | 
w:  MÜLÂZİME  |   | 
G2d2 edc2 B2cB BAA6  | A2c2 dcB2 A2B3/2A/ G^FG6  | 
w:   |   | 
c2B2 BAA2 ^F2G2 A2GF E4  | D^CD2 E2^F2 FEF3/2E/ DCD6  | 
w:   |   | 
d2^f2 g2a2 agc'2 b2ba a4  | a2b2 bag2 g^fag f^ef6  | 
w:  3. HANE  |   | 
g2^fe d2c2 B2c3/2B/ cde6  | d2df e2d2 c2(3dcB AG^F6  | 
w:   |   | 
d2^f2 g2a2 agc'2 b2ba a4  | a2b2 bag2 g^fag f^ef6  | 
w:  3. HANE  |   | 
g2^fe d2c2 B2c3/2B/ cde6  | d2df e2d2 c2(3dcB AG^F6  | 
w:   |   | 
d4 (3edc(3cBA (3AG^FF2 FED6  | c2d2 B2g2 f2e2 f3/2e/d^c d4  | 
w:  MÜLÂZİME  |   | 
G2d2 edc2 B2cB BAA6  | A2c2 dcB2 A2B3/2A/ G^FG6  | 
w:   |   | 
c2B2 BAA2 ^F2G2 A2GF E4  | D^CD2 E2^F2 FEF3/2E/ DCD6  | 
w:   |   | 
d4 (3edc(3cBA (3AG^FF2 FED6  | c2d2 B2g2 f2e2 f3/2e/d^c d4  | 
w:  MÜLÂZİME  |   | 
G2d2 edc2 B2cB BAA6  | A2c2 dcB2 A2B3/2A/ G^FG6  | 
w:   |   | 
c2B2 BAA2 ^F2G2 A2GF E4  | D^CD2 E2^F2 FEF3/2E/ DCD6  | 
w:   |   | 
z12  | D2G^FG2A2B4  | d4cBAG^F4  | ^F2FEF2G2A4  | \
w:  |  4. HANE *  (2. Nev'i Gülzâr)  |   |   | 
c2B2A2G^FG4  | 
w:   | 
D2G^FG2A2B4  | d4cBAG^F4  | ^F2FEF2G2A4  | \
w:   |   |   | 
c2B2A2G^FG4  | 
w:   | 
B2B^AB2c2d4  | ededc2cBA4  | A2AGA2B2c4  | \
w:   |   |   | 
d2c2B2^A2B4  | 
w:   | 
B2B^AB2c2d4  | ededc2cBA4  | A2AGA2B2c4  | \
w:   |   |   | 
d2c2B2^A2B4  | 
w:   | 
d2g2^fed6  | ededg2^fed4  | _edc2_B2BAA4  | \
w:   |   |   | 
_BABAc2BAG4  | 
w:   | 
d2g2^fed6  | ededg2^fed4  | _edc2_B2BAA4  | \
w:   |   |   | 
_BABAc2BAG4  | 
w:   | 
F2_B2A2G^FG4  | G^FG2A2G=FF4  | AGF2E2F2E2D2  | \
w:   |   |   | 
FEFEG2FED4  | 
w:   | 
F2_B2A2G^FG4  | G^FG2A2G=FF4  | AGF2E2F2E2D2  | \
w:   |   |   | 
FEFEG2FED4  | 
w:   | 
z20  | d4 (3edc(3cBA (3AG^FF2 FED6  | \
w:  |  MÜLÂZİME  | 
c2d2 B2g2 f2e2 f3/2e/d^c d4  | 
w:   | 
G2d2 edc2 B2cB BAA6  | A2c2 dcB2 A2B3/2A/ G^FG6  | 
w:   |   | 
c2B2 BAA2 ^F2G2 A2GF E4  | D^CD2 E2^F2 FEF3/2E/ DCD6  | 
w:   |   | 
d4 (3edc(3cBA (3AG^FF2 FED6  | c2d2 B2g2 f2e2 f3/2e/d^c d4  | 
w:  MÜLÂZİME  |   | 
G2d2 edc2 B2cB BAA6  | A2c2 dcB2 A2B3/2A/ G^FG6  | 
w:   |   | 
c2B2 BAA2 ^F2G2 A2GF E4  | D^CD2 E2^F2 FEF3/2E/ DCD6  | 
w:   |   | 
|


